dist/img/github.svg

<svg width="16" height="16" viewBox="0 0 16 16" fill="none" xmlns="http://www.w3.org/2000/svg">
<g clip-path="url('#clip0_13_10')">
<path d="M5.51714 12.275C5.51714 12.3354 5.44758 12.3838 5.35988 12.3838C5.26008 12.3929 5.19052 12.3445 5.19052 12.275C5.19052 12.2145 5.26008 12.1661 5.34778 12.1661C5.43851 12.1571 5.51714 12.2054 5.51714 12.275ZM4.57661 12.1389C4.55544 12.1994 4.61593 12.2689 4.70665 12.2871C4.78528 12.3173 4.87601 12.2871 4.89415 12.2266C4.9123 12.1661 4.85484 12.0966 4.76411 12.0694C4.68548 12.0482 4.59778 12.0785 4.57661 12.1389ZM5.91331 12.0875C5.8256 12.1087 5.76512 12.1661 5.77419 12.2357C5.78327 12.2961 5.8619 12.3354 5.95262 12.3143C6.04032 12.2931 6.10081 12.2357 6.09173 12.1752C6.08266 12.1178 6.00101 12.0785 5.91331 12.0875ZM7.90323 0.502686C3.70867 0.502686 0.5 3.6861 0.5 7.87926C0.5 11.232 2.61089 14.101 5.62601 15.1107C6.0131 15.1803 6.14919 14.9414 6.14919 14.7449C6.14919 14.5575 6.14012 13.5236 6.14012 12.8887C6.14012 12.8887 4.02319 13.3422 3.57863 11.9878C3.57863 11.9878 3.23387 11.108 2.7379 10.8813C2.7379 10.8813 2.04536 10.4066 2.78629 10.4157C2.78629 10.4157 3.53931 10.4762 3.95363 11.1957C4.61593 12.3627 5.72581 12.0271 6.15827 11.8275C6.22782 11.3438 6.4244 11.0083 6.64214 10.8087C4.95161 10.6213 3.24597 10.3764 3.24597 7.46811C3.24597 6.63673 3.47581 6.21953 3.95968 5.68745C3.88105 5.49095 3.62399 4.68073 4.03831 3.63471C4.67036 3.4382 6.125 4.45097 6.125 4.45097C6.72984 4.28167 7.38004 4.194 8.02419 4.194C8.66835 4.194 9.31855 4.28167 9.92339 4.45097C9.92339 4.45097 11.378 3.43518 12.0101 3.63471C12.4244 4.68375 12.1673 5.49095 12.0887 5.68745C12.5726 6.22256 12.869 6.63976 12.869 7.46811C12.869 10.3855 11.0877 10.6183 9.39718 10.8087C9.6754 11.0476 9.91129 11.501 9.91129 12.2115C9.91129 13.2303 9.90222 14.491 9.90222 14.7389C9.90222 14.9354 10.0413 15.1742 10.4254 15.1047C13.4496 14.101 15.5 11.232 15.5 7.87926C15.5 3.6861 12.0978 0.502686 7.90323 0.502686ZM3.43952 10.9297C3.4002 10.9599 3.40927 11.0294 3.46069 11.0869C3.50907 11.1352 3.57863 11.1564 3.61794 11.1171C3.65726 11.0869 3.64819 11.0173 3.59677 10.9599C3.54839 10.9115 3.47883 10.8904 3.43952 10.9297ZM3.1129 10.6848C3.09173 10.7241 3.12198 10.7725 3.18246 10.8027C3.23085 10.8329 3.29133 10.8238 3.3125 10.7815C3.33367 10.7422 3.30343 10.6939 3.24294 10.6636C3.18246 10.6455 3.13407 10.6546 3.1129 10.6848ZM4.09274 11.761C4.04435 11.8003 4.0625 11.891 4.13206 11.9485C4.20161 12.018 4.28931 12.0271 4.32863 11.9787C4.36794 11.9394 4.3498 11.8487 4.28931 11.7913C4.22278 11.7217 4.13206 11.7127 4.09274 11.761ZM3.74798 11.3166C3.6996 11.3469 3.6996 11.4255 3.74798 11.495C3.79637 11.5645 3.87802 11.5948 3.91734 11.5645C3.96573 11.5252 3.96573 11.4466 3.91734 11.3771C3.875 11.3076 3.79637 11.2773 3.74798 11.3166Z" fill="#272727"></path>
</g>
<defs>
<clipPath id="clip0_13_10">
<rect width="15" height="15.4787" fill="white" transform="translate(0.5 0.260742)"></rect>
</clipPath>
</defs>
</svg>

<svg width="16" height="16" fill="none" xmlns="http://www.w3.org/2000/svg"><g clip-path="url('#clip0_13_10')"><path d="M5.517 12.275c0 .06-.07.109-.157.109-.1.009-.17-.04-.17-.109 0-.06.07-.109.158-.109.09-.009.17.04.17.109Zm-.94-.136c-.022.06.039.13.13.148.078.03.169 0 .187-.06.018-.06-.04-.13-.13-.158-.079-.02-.166.01-.187.07Zm1.336-.051c-.087.02-.148.078-.139.148.01.06.088.1.179.078.087-.02.148-.078.139-.139-.01-.057-.091-.097-.179-.088ZM7.903.502C3.71.503.5 3.686.5 7.879c0 3.353 2.11 6.222 5.126 7.232.387.07.523-.17.523-.366 0-.188-.009-1.221-.009-1.856 0 0-2.117.453-2.561-.901 0 0-.345-.88-.841-1.107 0 0-.693-.474.048-.465 0 0 .753.06 1.168.78.662 1.167 1.772.831 2.204.632.07-.484.266-.82.484-1.02-1.69-.187-3.396-.432-3.396-3.34 0-.831.23-1.248.714-1.78-.079-.197-.336-1.007.078-2.053.632-.197 2.087.816 2.087.816a7.107 7.107 0 0 1 1.9-.257c.643 0 1.294.088 1.898.257 0 0 1.455-1.016 2.087-.816.414 1.049.157 1.856.079 2.052.484.536.78.953.78 1.781 0 2.918-1.781 3.15-3.472 3.34.278.24.514.693.514 1.403 0 1.02-.009 2.28-.009 2.528 0 .196.14.435.523.366C13.45 14.1 15.5 11.232 15.5 7.879c0-4.193-3.402-7.376-7.597-7.376ZM3.44 10.93c-.04.03-.03.1.02.157.05.048.119.07.158.03.04-.03.03-.1-.021-.157-.049-.049-.118-.07-.157-.03Zm-.327-.245c-.021.04.009.088.07.118.048.03.108.02.13-.022.02-.039-.01-.087-.07-.117-.06-.018-.109-.01-.13.02Zm.98 1.076c-.049.04-.03.13.04.188.069.069.156.078.196.03.039-.04.02-.13-.04-.188-.066-.07-.157-.078-.196-.03Zm-.345-.444c-.048.03-.048.108 0 .178.048.07.13.1.17.07.048-.04.048-.118 0-.188-.043-.07-.122-.1-.17-.06Z" fill="#272727"/></g><defs><clipPath id="clip0_13_10"><path fill="#fff" transform="translate(.5 .26)" d="M0 0h15v15.479H0z"/></clipPath></defs></svg>
